(Exported by FreeCAD)
(Post Processor: PathScripts.post.grbl_post)
(Output Time:2020-12-21 14:04:30.510498)
(begin preamble)
G17 G90
G21
(begin operation: Job)
(Path: Job)
(Pocket_Shape)
G0 Z6.0000
G0 X241.5235 Y723.9235
G0 Z4.0000
G1 X241.5235 Y723.9235 Z-5.3500 F60.00
G2 X241.1029 Y723.4529 Z-5.3500 I-0.2235 J-0.2235 F300.00
G2 X241.0529 Y723.8971 Z-5.3500 I0.1971 J0.2471 F300.00
G2 X241.4971 Y723.9471 Z-5.3500 I0.2471 J-0.1971 F300.00
G2 X241.5235 Y723.9235 Z-5.3500 I-0.1971 J-0.2471 F300.00
G1 X241.5235 Y723.9235 Z-11.7000 F60.00
G2 X241.1029 Y723.4529 Z-11.7000 I-0.2235 J-0.2235 F300.00
G2 X241.0529 Y723.8971 Z-11.7000 I0.1971 J0.2471 F300.00
G2 X241.4971 Y723.9471 Z-11.7000 I0.2471 J-0.1971 F300.00
G2 X241.5235 Y723.9235 Z-11.7000 I-0.1971 J-0.2471 F300.00
G1 X241.5235 Y723.9235 Z-12.5000 F60.00
G2 X241.1029 Y723.4529 Z-12.5000 I-0.2235 J-0.2235 F300.00
G2 X241.0529 Y723.8971 Z-12.5000 I0.1971 J0.2471 F300.00
G2 X241.4971 Y723.9471 Z-12.5000 I0.2471 J-0.1971 F300.00
G2 X241.5235 Y723.9235 Z-12.5000 I-0.1971 J-0.2471 F300.00
G0 Z6.0000
(MillFace)
G0 Z6.0000
G0 X235.7250 Y737.4389
G0 Z4.0000
G1 X235.7250 Y737.4389 Z-2.5000 F60.00
G1 X235.7250 Y739.5250 Z-2.5000 F300.00
G1 X237.8111 Y739.5250 Z-2.5000 F300.00
G1 X235.7250 Y737.4389 Z-2.5000 F300.00
G1 X235.7250 Y732.9487 Z-2.5000 F300.00
G1 X242.3013 Y739.5250 Z-2.5000 F300.00
G1 X246.7914 Y739.5250 Z-2.5000 F300.00
G1 X235.7250 Y728.4586 Z-2.5000 F300.00
G1 X235.7250 Y724.0256 Z-2.5000 F300.00
G1 X235.7276 Y723.9711 Z-2.5000 F300.00
G1 X246.8750 Y735.1185 Z-2.5000 F300.00
G1 X246.8750 Y730.6283 Z-2.5000 F300.00
G1 X236.8507 Y720.6041 Z-2.5000 F300.00
G3 X239.4378 Y718.7010 Z-2.5000 I4.4006 J3.2723 F300.00
G1 X246.8750 Y726.1382 Z-2.5000 F300.00
G1 X246.8750 Y724.0256 Z-2.5000 F300.00
G2 X245.3322 Y720.1053 Z-2.5000 I-5.5985 J-0.0605 F300.00
G0 Z6.0000
(Profile_Faces)
(Compensated Tool Path. Diameter: 6.35)
G0 Z6.0000
G0 X246.8750 Y739.5250
G0 Z4.0000
G1 X246.8750 Y739.5250 Z-2.5000 F60.00
G1 X246.8750 Y724.0256 Z-2.5000 F300.00
G2 X242.6135 Y718.5356 Z-2.5000 I-5.5804 J-0.0672 F300.00
G2 X235.7250 Y724.0256 Z-2.5000 I-1.3124 J5.4199 F300.00
G1 X235.7250 Y739.5250 Z-2.5000 F300.00
G1 X246.8750 Y739.5250 Z-2.5000 F300.00
G0 Z6.0000
(Pocket_Shape001)
G0 Z6.0000
G0 X-241.0765 Y723.9235
G0 Z4.0000
G1 X-241.0765 Y723.9235 Z-5.3500 F60.00
G2 X-241.4971 Y723.4529 Z-5.3500 I-0.2235 J-0.2235 F300.00
G2 X-241.5471 Y723.8971 Z-5.3500 I0.1971 J0.2471 F300.00
G2 X-241.1029 Y723.9471 Z-5.3500 I0.2471 J-0.1971 F300.00
G2 X-241.0765 Y723.9235 Z-5.3500 I-0.1971 J-0.2471 F300.00
G1 X-241.0765 Y723.9235 Z-11.7000 F60.00
G2 X-241.4971 Y723.4529 Z-11.7000 I-0.2235 J-0.2235 F300.00
G2 X-241.5471 Y723.8971 Z-11.7000 I0.1971 J0.2471 F300.00
G2 X-241.1029 Y723.9471 Z-11.7000 I0.2471 J-0.1971 F300.00
G2 X-241.0765 Y723.9235 Z-11.7000 I-0.1971 J-0.2471 F300.00
G1 X-241.0765 Y723.9235 Z-12.5000 F60.00
G2 X-241.4971 Y723.4529 Z-12.5000 I-0.2235 J-0.2235 F300.00
G2 X-241.5471 Y723.8971 Z-12.5000 I0.1971 J0.2471 F300.00
G2 X-241.1029 Y723.9471 Z-12.5000 I0.2471 J-0.1971 F300.00
G2 X-241.0765 Y723.9235 Z-12.5000 I-0.1971 J-0.2471 F300.00
G0 Z6.0000
(MillFace001)
G0 Z6.0000
G0 X-246.8750 Y737.4389
G0 Z4.0000
G1 X-246.8750 Y737.4389 Z-2.5000 F60.00
G1 X-246.8750 Y739.5250 Z-2.5000 F300.00
G1 X-244.7889 Y739.5250 Z-2.5000 F300.00
G1 X-246.8750 Y737.4389 Z-2.5000 F300.00
G1 X-246.8750 Y732.9487 Z-2.5000 F300.00
G1 X-240.2987 Y739.5250 Z-2.5000 F300.00
G1 X-235.8086 Y739.5250 Z-2.5000 F300.00
G1 X-246.8750 Y728.4586 Z-2.5000 F300.00
G1 X-246.8750 Y724.0256 Z-2.5000 F300.00
G1 X-246.8724 Y723.9711 Z-2.5000 F300.00
G1 X-235.7250 Y735.1185 Z-2.5000 F300.00
G1 X-235.7250 Y730.6283 Z-2.5000 F300.00
G1 X-245.7493 Y720.6041 Z-2.5000 F300.00
G3 X-243.1622 Y718.7010 Z-2.5000 I4.4006 J3.2723 F300.00
G1 X-235.7250 Y726.1382 Z-2.5000 F300.00
G1 X-235.7250 Y724.0256 Z-2.5000 F300.00
G2 X-237.2678 Y720.1053 Z-2.5000 I-5.5985 J-0.0605 F300.00
G0 Z6.0000
(Profile_Faces001)
(Compensated Tool Path. Diameter: 6.35)
G0 Z6.0000
G0 X-235.7250 Y739.5250
G0 Z4.0000
G1 X-235.7250 Y739.5250 Z-2.5000 F60.00
G1 X-235.7250 Y724.0256 Z-2.5000 F300.00
G2 X-239.9865 Y718.5356 Z-2.5000 I-5.5804 J-0.0672 F300.00
G2 X-246.8750 Y724.0256 Z-2.5000 I-1.3124 J5.4199 F300.00
G1 X-246.8750 Y739.5250 Z-2.5000 F300.00
G1 X-235.7250 Y739.5250 Z-2.5000 F300.00
G0 Z6.0000
(Pocket_Shape002)
G0 Z6.0000
G0 X-266.3533 Y723.6467
G0 Z4.0000
G1 X-266.3533 Y723.6467 Z-2.0000 F60.00
G2 X-266.3515 Y723.5550 Z-2.0000 I-0.0467 J-0.0467 F300.00
G2 X-266.4450 Y723.5515 Z-2.0000 I-0.0485 J0.0450 F300.00
G2 X-266.4485 Y723.6450 Z-2.0000 I0.0450 J0.0485 F300.00
G2 X-266.3533 Y723.6467 Z-2.0000 I0.0485 J-0.0450 F300.00
G0 Z6.0000
G0 X-149.0533 Y566.8467
G0 Z4.0000
G1 X-149.0533 Y566.8467 Z-2.0000 F60.00
G2 X-149.0515 Y566.7550 Z-2.0000 I-0.0467 J-0.0467 F300.00
G2 X-149.1450 Y566.7515 Z-2.0000 I-0.0485 J0.0450 F300.00
G2 X-149.1485 Y566.8450 Z-2.0000 I0.0450 J0.0485 F300.00
G2 X-149.0533 Y566.8467 Z-2.0000 I0.0485 J-0.0450 F300.00
G0 Z6.0000
G0 X-266.3533 Y488.8134
G0 Z4.0000
G1 X-266.3533 Y488.8134 Z-2.0000 F60.00
G2 X-266.3515 Y488.7217 Z-2.0000 I-0.0467 J-0.0467 F300.00
G2 X-266.4450 Y488.7182 Z-2.0000 I-0.0485 J0.0450 F300.00
G2 X-266.4485 Y488.8116 Z-2.0000 I0.0450 J0.0485 F300.00
G2 X-266.3533 Y488.8134 Z-2.0000 I0.0485 J-0.0450 F300.00
G0 Z6.0000
G0 X-149.0533 Y394.3467
G0 Z4.0000
G1 X-149.0533 Y394.3467 Z-2.0000 F60.00
G2 X-149.0515 Y394.2550 Z-2.0000 I-0.0467 J-0.0467 F300.00
G2 X-149.1450 Y394.2515 Z-2.0000 I-0.0485 J0.0450 F300.00
G2 X-149.1485 Y394.3450 Z-2.0000 I0.0450 J0.0485 F300.00
G2 X-149.0533 Y394.3467 Z-2.0000 I0.0485 J-0.0450 F300.00
G0 Z6.0000
G0 X-266.3533 Y253.9801
G0 Z4.0000
G1 X-266.3533 Y253.9801 Z-2.0000 F60.00
G2 X-266.3515 Y253.8884 Z-2.0000 I-0.0467 J-0.0467 F300.00
G2 X-266.4450 Y253.8849 Z-2.0000 I-0.0485 J0.0450 F300.00
G2 X-266.4485 Y253.9783 Z-2.0000 I0.0450 J0.0485 F300.00
G2 X-266.3533 Y253.9801 Z-2.0000 I0.0485 J-0.0450 F300.00
G0 Z6.0000
G0 X-149.0533 Y180.0467
G0 Z4.0000
G1 X-149.0533 Y180.0467 Z-2.0000 F60.00
G2 X-149.0515 Y179.9550 Z-2.0000 I-0.0467 J-0.0467 F300.00
G2 X-149.1450 Y179.9515 Z-2.0000 I-0.0485 J0.0450 F300.00
G2 X-149.1485 Y180.0450 Z-2.0000 I0.0450 J0.0485 F300.00
G2 X-149.0533 Y180.0467 Z-2.0000 I0.0485 J-0.0450 F300.00
G0 Z6.0000
G0 X-266.3533 Y19.1467
G0 Z4.0000
G1 X-266.3533 Y19.1467 Z-2.0000 F60.00
G2 X-266.3515 Y19.0550 Z-2.0000 I-0.0467 J-0.0467 F300.00
G2 X-266.4450 Y19.0515 Z-2.0000 I-0.0485 J0.0450 F300.00
G2 X-266.4485 Y19.1450 Z-2.0000 I0.0450 J0.0485 F300.00
G2 X-266.3533 Y19.1467 Z-2.0000 I0.0485 J-0.0450 F300.00
G0 Z6.0000
G0 X266.4467 Y19.1467
G0 Z4.0000
G1 X266.4467 Y19.1467 Z-2.0000 F60.00
G2 X266.4485 Y19.0550 Z-2.0000 I-0.0467 J-0.0467 F300.00
G2 X266.3550 Y19.0515 Z-2.0000 I-0.0485 J0.0450 F300.00
G2 X266.3515 Y19.1450 Z-2.0000 I0.0450 J0.0485 F300.00
G2 X266.4467 Y19.1467 Z-2.0000 I0.0485 J-0.0450 F300.00
G0 Z6.0000
G0 X266.4467 Y57.2467
G0 Z4.0000
G1 X266.4467 Y57.2467 Z-2.0000 F60.00
G2 X266.4485 Y57.1550 Z-2.0000 I-0.0467 J-0.0467 F300.00
G2 X266.3550 Y57.1515 Z-2.0000 I-0.0485 J0.0450 F300.00
G2 X266.3515 Y57.2450 Z-2.0000 I0.0450 J0.0485 F300.00
G2 X266.4467 Y57.2467 Z-2.0000 I0.0485 J-0.0450 F300.00
G0 Z6.0000
G0 X266.4467 Y95.3467
G0 Z4.0000
G1 X266.4467 Y95.3467 Z-2.0000 F60.00
G2 X266.4485 Y95.2550 Z-2.0000 I-0.0467 J-0.0467 F300.00
G2 X266.3550 Y95.2515 Z-2.0000 I-0.0485 J0.0450 F300.00
G2 X266.3515 Y95.3450 Z-2.0000 I0.0450 J0.0485 F300.00
G2 X266.4467 Y95.3467 Z-2.0000 I0.0485 J-0.0450 F300.00
G0 Z6.0000
G0 X149.1467 Y180.0467
G0 Z4.0000
G1 X149.1467 Y180.0467 Z-2.0000 F60.00
G2 X149.1485 Y179.9550 Z-2.0000 I-0.0467 J-0.0467 F300.00
G2 X149.0550 Y179.9515 Z-2.0000 I-0.0485 J0.0450 F300.00
G2 X149.0515 Y180.0450 Z-2.0000 I0.0450 J0.0485 F300.00
G2 X149.1467 Y180.0467 Z-2.0000 I0.0485 J-0.0450 F300.00
G0 Z6.0000
G0 X266.4467 Y283.6467
G0 Z4.0000
G1 X266.4467 Y283.6467 Z-2.0000 F60.00
G2 X266.4485 Y283.5550 Z-2.0000 I-0.0467 J-0.0467 F300.00
G2 X266.3550 Y283.5515 Z-2.0000 I-0.0485 J0.0450 F300.00
G2 X266.3515 Y283.6450 Z-2.0000 I0.0450 J0.0485 F300.00
G2 X266.4467 Y283.6467 Z-2.0000 I0.0485 J-0.0450 F300.00
G0 Z6.0000
G0 X149.1467 Y394.3467
G0 Z4.0000
G1 X149.1467 Y394.3467 Z-2.0000 F60.00
G2 X149.1485 Y394.2550 Z-2.0000 I-0.0467 J-0.0467 F300.00
G2 X149.0550 Y394.2515 Z-2.0000 I-0.0485 J0.0450 F300.00
G2 X149.0515 Y394.3450 Z-2.0000 I0.0450 J0.0485 F300.00
G2 X149.1467 Y394.3467 Z-2.0000 I0.0485 J-0.0450 F300.00
G0 Z6.0000
G0 X266.4467 Y471.9467
G0 Z4.0000
G1 X266.4467 Y471.9467 Z-2.0000 F60.00
G2 X266.4485 Y471.8550 Z-2.0000 I-0.0467 J-0.0467 F300.00
G2 X266.3550 Y471.8515 Z-2.0000 I-0.0485 J0.0450 F300.00
G2 X266.3515 Y471.9450 Z-2.0000 I0.0450 J0.0485 F300.00
G2 X266.4467 Y471.9467 Z-2.0000 I0.0485 J-0.0450 F300.00
G0 Z6.0000
G0 X149.1467 Y566.8467
G0 Z4.0000
G1 X149.1467 Y566.8467 Z-2.0000 F60.00
G2 X149.1485 Y566.7550 Z-2.0000 I-0.0467 J-0.0467 F300.00
G2 X149.0550 Y566.7515 Z-2.0000 I-0.0485 J0.0450 F300.00
G2 X149.0515 Y566.8450 Z-2.0000 I0.0450 J0.0485 F300.00
G2 X149.1467 Y566.8467 Z-2.0000 I0.0485 J-0.0450 F300.00
G0 Z6.0000
G0 X266.4467 Y660.2467
G0 Z4.0000
G1 X266.4467 Y660.2467 Z-2.0000 F60.00
G2 X266.4485 Y660.1550 Z-2.0000 I-0.0467 J-0.0467 F300.00
G2 X266.3550 Y660.1515 Z-2.0000 I-0.0485 J0.0450 F300.00
G2 X266.3515 Y660.2450 Z-2.0000 I0.0450 J0.0485 F300.00
G2 X266.4467 Y660.2467 Z-2.0000 I0.0485 J-0.0450 F300.00
G0 Z6.0000
G0 X266.4467 Y698.3467
G0 Z4.0000
G1 X266.4467 Y698.3467 Z-2.0000 F60.00
G2 X266.4485 Y698.2550 Z-2.0000 I-0.0467 J-0.0467 F300.00
G2 X266.3550 Y698.2515 Z-2.0000 I-0.0485 J0.0450 F300.00
G2 X266.3515 Y698.3450 Z-2.0000 I0.0450 J0.0485 F300.00
G2 X266.4467 Y698.3467 Z-2.0000 I0.0485 J-0.0450 F300.00
G0 Z6.0000
G0 X266.4467 Y723.7467
G0 Z4.0000
G1 X266.4467 Y723.7467 Z-2.0000 F60.00
G2 X266.4485 Y723.6550 Z-2.0000 I-0.0467 J-0.0467 F300.00
G2 X266.3550 Y723.6515 Z-2.0000 I-0.0485 J0.0450 F300.00
G2 X266.3515 Y723.7450 Z-2.0000 I0.0450 J0.0485 F300.00
G2 X266.4467 Y723.7467 Z-2.0000 I0.0485 J-0.0450 F300.00
G0 Z6.0000
G0 Z6.0000
G0 X300.4451 Y744.9451 Z6.0000
G0 X300.4451 Y744.9451 Z4.0000
G1 X300.4451 Y744.9451 Z-5.3500 F60.00
G2 X301.3750 Y742.7000 Z-5.3500 I-2.2451 J-2.2451 F300.00
G1 X301.3750 Y0.0000 Z-5.3500 F300.00
G2 X298.2000 Y-3.1750 Z-5.3500 I-3.1750 J0.0000 F300.00
G1 X241.3000 Y-3.1750 Z-5.3500 F300.00
G2 X228.5299 Y2.0696 Z-5.3500 I0.0067 J18.1856 F300.00
G1 X186.4752 Y44.1214 Z-5.3500 F300.00
G3 X178.0169 Y47.6250 Z-5.3500 I-8.4124 J-8.3473 F300.00
G1 X-178.0169 Y47.6250 Z-5.3500 F300.00
G3 X-186.4752 Y44.1215 Z-5.3500 I-0.0460 J-11.8509 F300.00
G1 X-228.4483 Y2.1483 Z-5.3500 F300.00
G2 X-241.1867 Y-3.1730 Z-5.3500 I-12.8544 J12.8640 F300.00
G1 X-298.2000 Y-3.1750 Z-5.3500 F300.00
G2 X-301.3750 Y0.0000 Z-5.3500 I0.0000 J3.1750 F300.00
G1 X-301.3750 Y742.7000 Z-5.3500 F300.00
G2 X-298.2000 Y745.8750 Z-5.3500 I3.1750 J-0.0000 F300.00
G1 X298.2000 Y745.8750 Z-5.3500 F300.00
G2 X300.4451 Y744.9451 Z-5.3500 I-0.0000 J-3.1750 F300.00
G1 X300.4451 Y744.9451 Z-11.7000 F60.00
G2 X301.3750 Y742.7000 Z-11.7000 I-2.2451 J-2.2451 F300.00
G1 X301.3750 Y565.4885 Z-11.7000 F300.00
G1 X301.3750 Y563.9385 Z-10.1500 F180.00
G1 X301.3750 Y550.1115 Z-10.1500 F300.00
G1 X301.3750 Y548.5615 Z-11.7000 F180.00
G1 X301.3750 Y194.1385 Z-11.7000 F300.00
G1 X301.3750 Y192.5885 Z-10.1500 F180.00
G1 X301.3750 Y178.7615 Z-10.1500 F300.00
G1 X301.3750 Y177.2115 Z-11.7000 F180.00
G1 X301.3750 Y0.0000 Z-11.7000 F300.00
G2 X298.2000 Y-3.1750 Z-11.7000 I-3.1750 J0.0000 F300.00
G1 X241.3000 Y-3.1750 Z-11.7000 F300.00
G2 X228.5299 Y2.0696 Z-11.7000 I0.0067 J18.1856 F300.00
G1 X186.4752 Y44.1214 Z-11.7000 F300.00
G3 X178.0169 Y47.6250 Z-11.7000 I-8.4124 J-8.3473 F300.00
G1 X-178.0169 Y47.6250 Z-11.7000 F300.00
G3 X-186.4752 Y44.1215 Z-11.7000 I-0.0460 J-11.8509 F300.00
G1 X-228.4483 Y2.1483 Z-11.7000 F300.00
G2 X-241.1867 Y-3.1730 Z-11.7000 I-12.8544 J12.8640 F300.00
G1 X-298.2000 Y-3.1750 Z-11.7000 F300.00
G2 X-301.3750 Y0.0000 Z-11.7000 I0.0000 J3.1750 F300.00
G1 X-301.3750 Y177.2115 Z-11.7000 F300.00
G1 X-301.3750 Y178.7615 Z-10.1500 F180.00
G1 X-301.3750 Y192.5885 Z-10.1500 F300.00
G1 X-301.3750 Y194.1385 Z-11.7000 F180.00
G1 X-301.3750 Y548.5615 Z-11.7000 F300.00
G1 X-301.3750 Y550.1115 Z-10.1500 F180.00
G1 X-301.3750 Y563.9385 Z-10.1500 F300.00
G1 X-301.3750 Y565.4885 Z-11.7000 F180.00
G1 X-301.3750 Y742.7000 Z-11.7000 F300.00
G2 X-298.2000 Y745.8750 Z-11.7000 I3.1750 J-0.0000 F300.00
G1 X298.2000 Y745.8750 Z-11.7000 F300.00
G2 X300.4451 Y744.9451 Z-11.7000 I-0.0000 J-3.1750 F300.00
G1 X300.4451 Y744.9451 Z-18.0500 F60.00
G2 X301.3750 Y742.7000 Z-18.0500 I-2.2451 J-2.2451 F300.00
G1 X301.3750 Y571.8385 Z-18.0500 F300.00
G1 X301.3750 Y563.9385 Z-10.1500 F180.00
G1 X301.3750 Y550.1115 Z-10.1500 F300.00
G1 X301.3750 Y542.2115 Z-18.0500 F180.00
G1 X301.3750 Y200.4885 Z-18.0500 F300.00
G1 X301.3750 Y192.5885 Z-10.1500 F180.00
G1 X301.3750 Y178.7615 Z-10.1500 F300.00
G1 X301.3750 Y170.8615 Z-18.0500 F180.00
G1 X301.3750 Y0.0000 Z-18.0500 F300.00
G2 X298.2000 Y-3.1750 Z-18.0500 I-3.1750 J0.0000 F300.00
G1 X241.3000 Y-3.1750 Z-18.0500 F300.00
G2 X228.5299 Y2.0696 Z-18.0500 I0.0067 J18.1856 F300.00
G1 X186.4752 Y44.1214 Z-18.0500 F300.00
G3 X178.0169 Y47.6250 Z-18.0500 I-8.4124 J-8.3473 F300.00
G1 X-178.0169 Y47.6250 Z-18.0500 F300.00
G3 X-186.4752 Y44.1215 Z-18.0500 I-0.0460 J-11.8509 F300.00
G1 X-228.4483 Y2.1483 Z-18.0500 F300.00
G2 X-241.1867 Y-3.1730 Z-18.0500 I-12.8544 J12.8640 F300.00
G1 X-298.2000 Y-3.1750 Z-18.0500 F300.00
G2 X-301.3750 Y0.0000 Z-18.0500 I0.0000 J3.1750 F300.00
G1 X-301.3750 Y170.8615 Z-18.0500 F300.00
G1 X-301.3750 Y178.7615 Z-10.1500 F180.00
G1 X-301.3750 Y192.5885 Z-10.1500 F300.00
G1 X-301.3750 Y200.4885 Z-18.0500 F180.00
G1 X-301.3750 Y542.2115 Z-18.0500 F300.00
G1 X-301.3750 Y550.1115 Z-10.1500 F180.00
G1 X-301.3750 Y563.9385 Z-10.1500 F300.00
G1 X-301.3750 Y571.8385 Z-18.0500 F180.00
G1 X-301.3750 Y742.7000 Z-18.0500 F300.00
G2 X-298.2000 Y745.8750 Z-18.0500 I3.1750 J-0.0000 F300.00
G1 X298.2000 Y745.8750 Z-18.0500 F300.00
G2 X300.4451 Y744.9451 Z-18.0500 I-0.0000 J-3.1750 F300.00
G1 X300.4451 Y744.9451 Z-21.3000 F60.00
G2 X301.3750 Y742.7000 Z-21.3000 I-2.2451 J-2.2451 F300.00
G1 X301.3750 Y575.0885 Z-21.3000 F300.00
G1 X301.3750 Y563.9385 Z-10.1500 F180.00
G1 X301.3750 Y550.1115 Z-10.1500 F300.00
G1 X301.3750 Y538.9615 Z-21.3000 F180.00
G1 X301.3750 Y203.7385 Z-21.3000 F300.00
G1 X301.3750 Y192.5885 Z-10.1500 F180.00
G1 X301.3750 Y178.7615 Z-10.1500 F300.00
G1 X301.3750 Y167.6115 Z-21.3000 F180.00
G1 X301.3750 Y0.0000 Z-21.3000 F300.00
G2 X298.2000 Y-3.1750 Z-21.3000 I-3.1750 J0.0000 F300.00
G1 X241.3000 Y-3.1750 Z-21.3000 F300.00
G2 X228.5299 Y2.0696 Z-21.3000 I0.0067 J18.1856 F300.00
G1 X186.4752 Y44.1214 Z-21.3000 F300.00
G3 X178.0169 Y47.6250 Z-21.3000 I-8.4124 J-8.3473 F300.00
G1 X-178.0169 Y47.6250 Z-21.3000 F300.00
G3 X-186.4752 Y44.1215 Z-21.3000 I-0.0460 J-11.8509 F300.00
G1 X-228.4483 Y2.1483 Z-21.3000 F300.00
G2 X-241.1867 Y-3.1730 Z-21.3000 I-12.8544 J12.8640 F300.00
G1 X-298.2000 Y-3.1750 Z-21.3000 F300.00
G2 X-301.3750 Y0.0000 Z-21.3000 I0.0000 J3.1750 F300.00
G1 X-301.3750 Y167.6115 Z-21.3000 F300.00
G1 X-301.3750 Y178.7615 Z-10.1500 F180.00
G1 X-301.3750 Y192.5885 Z-10.1500 F300.00
G1 X-301.3750 Y203.7385 Z-21.3000 F180.00
G1 X-301.3750 Y538.9615 Z-21.3000 F300.00
G1 X-301.3750 Y550.1115 Z-10.1500 F180.00
G1 X-301.3750 Y563.9385 Z-10.1500 F300.00
G1 X-301.3750 Y575.0885 Z-21.3000 F180.00
G1 X-301.3750 Y742.7000 Z-21.3000 F300.00
G2 X-298.2000 Y745.8750 Z-21.3000 I3.1750 J-0.0000 F300.00
G1 X298.2000 Y745.8750 Z-21.3000 F300.00
G2 X300.4451 Y744.9451 Z-21.3000 I-0.0000 J-3.1750 F300.00
G0 X300.4451 Y744.9451 Z6.0000
(finish operation: Job)
(begin postamble)
M5
G17 G90
; M2
