(Layout generated by GGen)
(Part 1 placement Placement.initial)
(Part 2 placement Placement.up)
(Part 3 placement Placement.up)
(Time: 2021-03-07 18:43:28.298878)

(begin preamble)
G17 G90
G21
(Exported by FreeCAD)
(Post Processor: PathScripts.post.grbl_post)
(Output Time:2020-12-21 14:04:30.510498)
(begin preamble)
G17 G90
G21
(begin operation: Job)
(Path: Job)
G0 Z6.0000
G0 X531.2451 Y46.2451 Z6.0000
G0 X531.2451 Y46.2451 Z4.0000
G1 X531.2451 Y46.2451 Z-5.3500 F60.00
G2 X532.1750 Y44.0000 Z-5.3500 I-2.2451 J-2.2451 F360.00
G1 X532.1750 Y0.0000 Z-5.3500 F360.00
G2 X529.0000 Y-3.1750 Z-5.3500 I-3.1750 J0.0000 F360.00
G1 X0.0000 Y-3.1750 Z-5.3500 F360.00
G2 X-3.1750 Y0.0000 Z-5.3500 I0.0000 J3.1750 F360.00
G1 X-3.1750 Y44.0000 Z-5.3500 F360.00
G2 X0.0000 Y47.1750 Z-5.3500 I3.1750 J-0.0000 F360.00
G1 X529.0000 Y47.1750 Z-5.3500 F360.00
G2 X531.2451 Y46.2451 Z-5.3500 I-0.0000 J-3.1750 F360.00
G1 X531.2451 Y46.2451 Z-11.7000 F60.00
G2 X532.1750 Y44.0000 Z-11.7000 I-2.2451 J-2.2451 F360.00
G1 X532.1750 Y0.0000 Z-11.7000 F360.00
G2 X529.0000 Y-3.1750 Z-11.7000 I-3.1750 J0.0000 F360.00
G1 X0.0000 Y-3.1750 Z-11.7000 F360.00
G2 X-3.1750 Y0.0000 Z-11.7000 I0.0000 J3.1750 F360.00
G1 X-3.1750 Y44.0000 Z-11.7000 F360.00
G2 X0.0000 Y47.1750 Z-11.7000 I3.1750 J-0.0000 F360.00
G1 X126.2865 Y47.1750 Z-11.7000 F360.00
G1 X127.8365 Y47.1750 Z-10.1500 F210.00
G1 X136.6635 Y47.1750 Z-10.1500 F360.00
G1 X138.2135 Y47.1750 Z-11.7000 F210.00
G1 X390.7865 Y47.1750 Z-11.7000 F360.00
G1 X392.3365 Y47.1750 Z-10.1500 F210.00
G1 X401.1635 Y47.1750 Z-10.1500 F360.00
G1 X402.7135 Y47.1750 Z-11.7000 F210.00
G1 X529.0000 Y47.1750 Z-11.7000 F360.00
G2 X531.2451 Y46.2451 Z-11.7000 I-0.0000 J-3.1750 F360.00
G1 X531.2451 Y46.2451 Z-18.0500 F60.00
G2 X532.1750 Y44.0000 Z-18.0500 I-2.2451 J-2.2451 F360.00
G1 X532.1750 Y0.0000 Z-18.0500 F360.00
G2 X529.0000 Y-3.1750 Z-18.0500 I-3.1750 J0.0000 F360.00
G1 X0.0000 Y-3.1750 Z-18.0500 F360.00
G2 X-3.1750 Y0.0000 Z-18.0500 I0.0000 J3.1750 F360.00
G1 X-3.1750 Y44.0000 Z-18.0500 F360.00
G2 X0.0000 Y47.1750 Z-18.0500 I3.1750 J-0.0000 F360.00
G1 X119.9365 Y47.1750 Z-18.0500 F360.00
G1 X127.8365 Y47.1750 Z-10.1500 F210.00
G1 X136.6635 Y47.1750 Z-10.1500 F360.00
G1 X144.5635 Y47.1750 Z-18.0500 F210.00
G1 X384.4365 Y47.1750 Z-18.0500 F360.00
G1 X392.3365 Y47.1750 Z-10.1500 F210.00
G1 X401.1635 Y47.1750 Z-10.1500 F360.00
G1 X409.0635 Y47.1750 Z-18.0500 F210.00
G1 X529.0000 Y47.1750 Z-18.0500 F360.00
G2 X531.2451 Y46.2451 Z-18.0500 I-0.0000 J-3.1750 F360.00
G1 X531.2451 Y46.2451 Z-21.3000 F60.00
G2 X532.1750 Y44.0000 Z-21.3000 I-2.2451 J-2.2451 F360.00
G1 X532.1750 Y0.0000 Z-21.3000 F360.00
G2 X529.0000 Y-3.1750 Z-21.3000 I-3.1750 J0.0000 F360.00
G1 X0.0000 Y-3.1750 Z-21.3000 F360.00
G2 X-3.1750 Y0.0000 Z-21.3000 I0.0000 J3.1750 F360.00
G1 X-3.1750 Y44.0000 Z-21.3000 F360.00
G2 X0.0000 Y47.1750 Z-21.3000 I3.1750 J-0.0000 F360.00
G1 X116.6865 Y47.1750 Z-21.3000 F360.00
G1 X127.8365 Y47.1750 Z-10.1500 F210.00
G1 X136.6635 Y47.1750 Z-10.1500 F360.00
G1 X147.8135 Y47.1750 Z-21.3000 F210.00
G1 X381.1865 Y47.1750 Z-21.3000 F360.00
G1 X392.3365 Y47.1750 Z-10.1500 F210.00
G1 X401.1635 Y47.1750 Z-10.1500 F360.00
G1 X412.3135 Y47.1750 Z-21.3000 F210.00
G1 X529.0000 Y47.1750 Z-21.3000 F360.00
G2 X531.2451 Y46.2451 Z-21.3000 I-0.0000 J-3.1750 F360.00
G0 X531.2451 Y46.2451 Z6.0000
(Pocket_Shape)
G0 Z6.0000
G0 X26.0467 Y22.0467
G0 Z4.0000
G1 X26.0467 Y22.0467 Z-2.0000 F60.00
G2 X26.0485 Y21.9550 Z-2.0000 I-0.0467 J-0.0467 F360.00
G2 X25.9550 Y21.9515 Z-2.0000 I-0.0485 J0.0450 F360.00
G2 X25.9515 Y22.0450 Z-2.0000 I0.0450 J0.0485 F360.00
G2 X26.0467 Y22.0467 Z-2.0000 I0.0485 J-0.0450 F360.00
G0 Z6.0000
G0 X218.5467 Y22.0467
G0 Z4.0000
G1 X218.5467 Y22.0467 Z-2.0000 F60.00
G2 X218.5485 Y21.9550 Z-2.0000 I-0.0467 J-0.0467 F360.00
G2 X218.4550 Y21.9515 Z-2.0000 I-0.0485 J0.0450 F360.00
G2 X218.4515 Y22.0450 Z-2.0000 I0.0450 J0.0485 F360.00
G2 X218.5467 Y22.0467 Z-2.0000 I0.0485 J-0.0450 F360.00
G0 Z6.0000
G0 X442.5467 Y22.0467
G0 Z4.0000
G1 X442.5467 Y22.0467 Z-2.0000 F60.00
G2 X442.5485 Y21.9550 Z-2.0000 I-0.0467 J-0.0467 F360.00
G2 X442.4550 Y21.9515 Z-2.0000 I-0.0485 J0.0450 F360.00
G2 X442.4515 Y22.0450 Z-2.0000 I0.0450 J0.0485 F360.00
G2 X442.5467 Y22.0467 Z-2.0000 I0.0485 J-0.0450 F360.00
G0 Z6.0000
(finish operation: Job)
(begin postamble)
M5
G17 G90



(Running time for Part 1: 0:15:40.170000)
(Time to this point: 0:15:40.170000)
(end Part 1)

(Move origin for Part 2)
G10 L20 P1 X442.54678274254 Y-48.95321725746042

(start Part 2)

(Exported by FreeCAD)
(Post Processor: PathScripts.post.grbl_post)
(Output Time:2020-12-21 14:04:30.510498)
(begin preamble)
G17 G90
G21
(begin operation: Job)
(Path: Job)
G0 Z6.0000
G0 X531.2451 Y46.2451 Z6.0000
G0 X531.2451 Y46.2451 Z4.0000
G1 X531.2451 Y46.2451 Z-5.3500 F60.00
G2 X532.1750 Y44.0000 Z-5.3500 I-2.2451 J-2.2451 F360.00
G1 X532.1750 Y0.0000 Z-5.3500 F360.00
G2 X529.0000 Y-3.1750 Z-5.3500 I-3.1750 J0.0000 F360.00
G1 X0.0000 Y-3.1750 Z-5.3500 F360.00
G2 X-3.1750 Y0.0000 Z-5.3500 I0.0000 J3.1750 F360.00
G1 X-3.1750 Y44.0000 Z-5.3500 F360.00
G2 X0.0000 Y47.1750 Z-5.3500 I3.1750 J-0.0000 F360.00
G1 X529.0000 Y47.1750 Z-5.3500 F360.00
G2 X531.2451 Y46.2451 Z-5.3500 I-0.0000 J-3.1750 F360.00
G1 X531.2451 Y46.2451 Z-11.7000 F60.00
G2 X532.1750 Y44.0000 Z-11.7000 I-2.2451 J-2.2451 F360.00
G1 X532.1750 Y0.0000 Z-11.7000 F360.00
G2 X529.0000 Y-3.1750 Z-11.7000 I-3.1750 J0.0000 F360.00
G1 X0.0000 Y-3.1750 Z-11.7000 F360.00
G2 X-3.1750 Y0.0000 Z-11.7000 I0.0000 J3.1750 F360.00
G1 X-3.1750 Y44.0000 Z-11.7000 F360.00
G2 X0.0000 Y47.1750 Z-11.7000 I3.1750 J-0.0000 F360.00
G1 X126.2865 Y47.1750 Z-11.7000 F360.00
G1 X127.8365 Y47.1750 Z-10.1500 F210.00
G1 X136.6635 Y47.1750 Z-10.1500 F360.00
G1 X138.2135 Y47.1750 Z-11.7000 F210.00
G1 X390.7865 Y47.1750 Z-11.7000 F360.00
G1 X392.3365 Y47.1750 Z-10.1500 F210.00
G1 X401.1635 Y47.1750 Z-10.1500 F360.00
G1 X402.7135 Y47.1750 Z-11.7000 F210.00
G1 X529.0000 Y47.1750 Z-11.7000 F360.00
G2 X531.2451 Y46.2451 Z-11.7000 I-0.0000 J-3.1750 F360.00
G1 X531.2451 Y46.2451 Z-18.0500 F60.00
G2 X532.1750 Y44.0000 Z-18.0500 I-2.2451 J-2.2451 F360.00
G1 X532.1750 Y0.0000 Z-18.0500 F360.00
G2 X529.0000 Y-3.1750 Z-18.0500 I-3.1750 J0.0000 F360.00
G1 X0.0000 Y-3.1750 Z-18.0500 F360.00
G2 X-3.1750 Y0.0000 Z-18.0500 I0.0000 J3.1750 F360.00
G1 X-3.1750 Y44.0000 Z-18.0500 F360.00
G2 X0.0000 Y47.1750 Z-18.0500 I3.1750 J-0.0000 F360.00
G1 X119.9365 Y47.1750 Z-18.0500 F360.00
G1 X127.8365 Y47.1750 Z-10.1500 F210.00
G1 X136.6635 Y47.1750 Z-10.1500 F360.00
G1 X144.5635 Y47.1750 Z-18.0500 F210.00
G1 X384.4365 Y47.1750 Z-18.0500 F360.00
G1 X392.3365 Y47.1750 Z-10.1500 F210.00
G1 X401.1635 Y47.1750 Z-10.1500 F360.00
G1 X409.0635 Y47.1750 Z-18.0500 F210.00
G1 X529.0000 Y47.1750 Z-18.0500 F360.00
G2 X531.2451 Y46.2451 Z-18.0500 I-0.0000 J-3.1750 F360.00
G1 X531.2451 Y46.2451 Z-21.3000 F60.00
G2 X532.1750 Y44.0000 Z-21.3000 I-2.2451 J-2.2451 F360.00
G1 X532.1750 Y0.0000 Z-21.3000 F360.00
G2 X529.0000 Y-3.1750 Z-21.3000 I-3.1750 J0.0000 F360.00
G1 X0.0000 Y-3.1750 Z-21.3000 F360.00
G2 X-3.1750 Y0.0000 Z-21.3000 I0.0000 J3.1750 F360.00
G1 X-3.1750 Y44.0000 Z-21.3000 F360.00
G2 X0.0000 Y47.1750 Z-21.3000 I3.1750 J-0.0000 F360.00
G1 X116.6865 Y47.1750 Z-21.3000 F360.00
G1 X127.8365 Y47.1750 Z-10.1500 F210.00
G1 X136.6635 Y47.1750 Z-10.1500 F360.00
G1 X147.8135 Y47.1750 Z-21.3000 F210.00
G1 X381.1865 Y47.1750 Z-21.3000 F360.00
G1 X392.3365 Y47.1750 Z-10.1500 F210.00
G1 X401.1635 Y47.1750 Z-10.1500 F360.00
G1 X412.3135 Y47.1750 Z-21.3000 F210.00
G1 X529.0000 Y47.1750 Z-21.3000 F360.00
G2 X531.2451 Y46.2451 Z-21.3000 I-0.0000 J-3.1750 F360.00
G0 X531.2451 Y46.2451 Z6.0000
(Pocket_Shape)
G0 Z6.0000
G0 X26.0467 Y22.0467
G0 Z4.0000
G1 X26.0467 Y22.0467 Z-2.0000 F60.00
G2 X26.0485 Y21.9550 Z-2.0000 I-0.0467 J-0.0467 F360.00
G2 X25.9550 Y21.9515 Z-2.0000 I-0.0485 J0.0450 F360.00
G2 X25.9515 Y22.0450 Z-2.0000 I0.0450 J0.0485 F360.00
G2 X26.0467 Y22.0467 Z-2.0000 I0.0485 J-0.0450 F360.00
G0 Z6.0000
G0 X218.5467 Y22.0467
G0 Z4.0000
G1 X218.5467 Y22.0467 Z-2.0000 F60.00
G2 X218.5485 Y21.9550 Z-2.0000 I-0.0467 J-0.0467 F360.00
G2 X218.4550 Y21.9515 Z-2.0000 I-0.0485 J0.0450 F360.00
G2 X218.4515 Y22.0450 Z-2.0000 I0.0450 J0.0485 F360.00
G2 X218.5467 Y22.0467 Z-2.0000 I0.0485 J-0.0450 F360.00
G0 Z6.0000
G0 X442.5467 Y22.0467
G0 Z4.0000
G1 X442.5467 Y22.0467 Z-2.0000 F60.00
G2 X442.5485 Y21.9550 Z-2.0000 I-0.0467 J-0.0467 F360.00
G2 X442.4550 Y21.9515 Z-2.0000 I-0.0485 J0.0450 F360.00
G2 X442.4515 Y22.0450 Z-2.0000 I0.0450 J0.0485 F360.00
G2 X442.5467 Y22.0467 Z-2.0000 I0.0485 J-0.0450 F360.00
G0 Z6.0000
(finish operation: Job)
(begin postamble)
M5
G17 G90



(Running time for Part 2: 0:15:40.170000)
(Time to this point: 0:31:20.340000)
(end Part 2)

(Move origin for Part 3)
G10 L20 P1 X442.54678274254 Y-48.95321725746041

(start Part 3)

(Exported by FreeCAD)
(Post Processor: PathScripts.post.grbl_post)
(Output Time:2020-12-21 14:04:30.510498)
(begin preamble)
G17 G90
G21
(begin operation: Job)
(Path: Job)
G0 Z6.0000
G0 X531.2451 Y46.2451 Z6.0000
G0 X531.2451 Y46.2451 Z4.0000
G1 X531.2451 Y46.2451 Z-5.3500 F60.00
G2 X532.1750 Y44.0000 Z-5.3500 I-2.2451 J-2.2451 F360.00
G1 X532.1750 Y0.0000 Z-5.3500 F360.00
G2 X529.0000 Y-3.1750 Z-5.3500 I-3.1750 J0.0000 F360.00
G1 X0.0000 Y-3.1750 Z-5.3500 F360.00
G2 X-3.1750 Y0.0000 Z-5.3500 I0.0000 J3.1750 F360.00
G1 X-3.1750 Y44.0000 Z-5.3500 F360.00
G2 X0.0000 Y47.1750 Z-5.3500 I3.1750 J-0.0000 F360.00
G1 X529.0000 Y47.1750 Z-5.3500 F360.00
G2 X531.2451 Y46.2451 Z-5.3500 I-0.0000 J-3.1750 F360.00
G1 X531.2451 Y46.2451 Z-11.7000 F60.00
G2 X532.1750 Y44.0000 Z-11.7000 I-2.2451 J-2.2451 F360.00
G1 X532.1750 Y0.0000 Z-11.7000 F360.00
G2 X529.0000 Y-3.1750 Z-11.7000 I-3.1750 J0.0000 F360.00
G1 X0.0000 Y-3.1750 Z-11.7000 F360.00
G2 X-3.1750 Y0.0000 Z-11.7000 I0.0000 J3.1750 F360.00
G1 X-3.1750 Y44.0000 Z-11.7000 F360.00
G2 X0.0000 Y47.1750 Z-11.7000 I3.1750 J-0.0000 F360.00
G1 X126.2865 Y47.1750 Z-11.7000 F360.00
G1 X127.8365 Y47.1750 Z-10.1500 F210.00
G1 X136.6635 Y47.1750 Z-10.1500 F360.00
G1 X138.2135 Y47.1750 Z-11.7000 F210.00
G1 X390.7865 Y47.1750 Z-11.7000 F360.00
G1 X392.3365 Y47.1750 Z-10.1500 F210.00
G1 X401.1635 Y47.1750 Z-10.1500 F360.00
G1 X402.7135 Y47.1750 Z-11.7000 F210.00
G1 X529.0000 Y47.1750 Z-11.7000 F360.00
G2 X531.2451 Y46.2451 Z-11.7000 I-0.0000 J-3.1750 F360.00
G1 X531.2451 Y46.2451 Z-18.0500 F60.00
G2 X532.1750 Y44.0000 Z-18.0500 I-2.2451 J-2.2451 F360.00
G1 X532.1750 Y0.0000 Z-18.0500 F360.00
G2 X529.0000 Y-3.1750 Z-18.0500 I-3.1750 J0.0000 F360.00
G1 X0.0000 Y-3.1750 Z-18.0500 F360.00
G2 X-3.1750 Y0.0000 Z-18.0500 I0.0000 J3.1750 F360.00
G1 X-3.1750 Y44.0000 Z-18.0500 F360.00
G2 X0.0000 Y47.1750 Z-18.0500 I3.1750 J-0.0000 F360.00
G1 X119.9365 Y47.1750 Z-18.0500 F360.00
G1 X127.8365 Y47.1750 Z-10.1500 F210.00
G1 X136.6635 Y47.1750 Z-10.1500 F360.00
G1 X144.5635 Y47.1750 Z-18.0500 F210.00
G1 X384.4365 Y47.1750 Z-18.0500 F360.00
G1 X392.3365 Y47.1750 Z-10.1500 F210.00
G1 X401.1635 Y47.1750 Z-10.1500 F360.00
G1 X409.0635 Y47.1750 Z-18.0500 F210.00
G1 X529.0000 Y47.1750 Z-18.0500 F360.00
G2 X531.2451 Y46.2451 Z-18.0500 I-0.0000 J-3.1750 F360.00
G1 X531.2451 Y46.2451 Z-21.3000 F60.00
G2 X532.1750 Y44.0000 Z-21.3000 I-2.2451 J-2.2451 F360.00
G1 X532.1750 Y0.0000 Z-21.3000 F360.00
G2 X529.0000 Y-3.1750 Z-21.3000 I-3.1750 J0.0000 F360.00
G1 X0.0000 Y-3.1750 Z-21.3000 F360.00
G2 X-3.1750 Y0.0000 Z-21.3000 I0.0000 J3.1750 F360.00
G1 X-3.1750 Y44.0000 Z-21.3000 F360.00
G2 X0.0000 Y47.1750 Z-21.3000 I3.1750 J-0.0000 F360.00
G1 X116.6865 Y47.1750 Z-21.3000 F360.00
G1 X127.8365 Y47.1750 Z-10.1500 F210.00
G1 X136.6635 Y47.1750 Z-10.1500 F360.00
G1 X147.8135 Y47.1750 Z-21.3000 F210.00
G1 X381.1865 Y47.1750 Z-21.3000 F360.00
G1 X392.3365 Y47.1750 Z-10.1500 F210.00
G1 X401.1635 Y47.1750 Z-10.1500 F360.00
G1 X412.3135 Y47.1750 Z-21.3000 F210.00
G1 X529.0000 Y47.1750 Z-21.3000 F360.00
G2 X531.2451 Y46.2451 Z-21.3000 I-0.0000 J-3.1750 F360.00
G0 X531.2451 Y46.2451 Z6.0000
(Pocket_Shape)
G0 Z6.0000
G0 X26.0467 Y22.0467
G0 Z4.0000
G1 X26.0467 Y22.0467 Z-2.0000 F60.00
G2 X26.0485 Y21.9550 Z-2.0000 I-0.0467 J-0.0467 F360.00
G2 X25.9550 Y21.9515 Z-2.0000 I-0.0485 J0.0450 F360.00
G2 X25.9515 Y22.0450 Z-2.0000 I0.0450 J0.0485 F360.00
G2 X26.0467 Y22.0467 Z-2.0000 I0.0485 J-0.0450 F360.00
G0 Z6.0000
G0 X218.5467 Y22.0467
G0 Z4.0000
G1 X218.5467 Y22.0467 Z-2.0000 F60.00
G2 X218.5485 Y21.9550 Z-2.0000 I-0.0467 J-0.0467 F360.00
G2 X218.4550 Y21.9515 Z-2.0000 I-0.0485 J0.0450 F360.00
G2 X218.4515 Y22.0450 Z-2.0000 I0.0450 J0.0485 F360.00
G2 X218.5467 Y22.0467 Z-2.0000 I0.0485 J-0.0450 F360.00
G0 Z6.0000
G0 X442.5467 Y22.0467
G0 Z4.0000
G1 X442.5467 Y22.0467 Z-2.0000 F60.00
G2 X442.5485 Y21.9550 Z-2.0000 I-0.0467 J-0.0467 F360.00
G2 X442.4550 Y21.9515 Z-2.0000 I-0.0485 J0.0450 F360.00
G2 X442.4515 Y22.0450 Z-2.0000 I0.0450 J0.0485 F360.00
G2 X442.5467 Y22.0467 Z-2.0000 I0.0485 J-0.0450 F360.00
G0 Z6.0000
(finish operation: Job)
(begin postamble)
M5
G17 G90



(Running time for Part 3: 0:15:40.170000)
(Time to this point: 0:47:00.510000)
(end Part 3)


(begin postamble)
M5
G17 G90
M2