(Generated by GGen)
(Time: 2021-03-12 20:49:53.036647)

(Machine with clearanceHeight: 1.0,)
(safeHeight: 5.0, toolDiameter:)
(6.35, maxCutStepDepth: 5.715,)
(horizontalFeedCutting: 500.0,)
(horizontalFeedMilling: 900.0,)
(verticalFeedDown: 60.0,)
(verticalFeedUp: 120.0,)
(materialThickness: 20.0,)
(millOverlap: 0.5, tabHeight: 11.0,)
(tabWidth: 20.0, tabSpacing: 300.0)

(ShakerPanel with width: 300.0,)
(height: 150.0, styleWidth: 50.8,)
(pocketDepth: -4.0, handleOffset:)
(null, handleOrientationLandscape:)
(null, handleWidth: 0.0)


(begin preamble)
G17 G90
G21

(Inside edge trim)
G0 Z5.0000
G0 X53.9750 Y53.9750
G0 Z1.0000
G1 X53.9750 Y53.9750 Z-4.0000 F60.0000
G1 X53.9750 Y96.0250 Z-4.0000 F500.0000
G1 X246.0250 Y96.0250 Z-4.0000 F500.0000
G1 X246.0250 Y53.9750 Z-4.0000 F500.0000
G1 X53.9750 Y53.9750 Z-4.0000 F500.0000
G0 Z1.0000;  Rectangle cut done

(Mill rectangle)
G0 Z5.0000
G0 X57.1500 Y57.1500
G0 Z1.0000
G1 X57.1500 Y57.1500 Z-4.0000 F60.0000
G1 X242.8500 Y57.1500 Z-4.0000 F900.0000
G1 X242.8500 Y58.7375 Z-4.0000 F900.0000
G1 X57.1500 Y58.7375 Z-4.0000 F900.0000
G1 X57.1500 Y60.3250 Z-4.0000 F900.0000
G1 X242.8500 Y60.3250 Z-4.0000 F900.0000
G1 X242.8500 Y61.9125 Z-4.0000 F900.0000
G1 X57.1500 Y61.9125 Z-4.0000 F900.0000
G1 X57.1500 Y63.5000 Z-4.0000 F900.0000
G1 X242.8500 Y63.5000 Z-4.0000 F900.0000
G1 X242.8500 Y65.0875 Z-4.0000 F900.0000
G1 X57.1500 Y65.0875 Z-4.0000 F900.0000
G1 X57.1500 Y66.6750 Z-4.0000 F900.0000
G1 X242.8500 Y66.6750 Z-4.0000 F900.0000
G1 X242.8500 Y68.2625 Z-4.0000 F900.0000
G1 X57.1500 Y68.2625 Z-4.0000 F900.0000
G1 X57.1500 Y69.8500 Z-4.0000 F900.0000
G1 X242.8500 Y69.8500 Z-4.0000 F900.0000
G1 X242.8500 Y71.4375 Z-4.0000 F900.0000
G1 X57.1500 Y71.4375 Z-4.0000 F900.0000
G1 X57.1500 Y73.0250 Z-4.0000 F900.0000
G1 X242.8500 Y73.0250 Z-4.0000 F900.0000
G1 X242.8500 Y74.6125 Z-4.0000 F900.0000
G1 X57.1500 Y74.6125 Z-4.0000 F900.0000
G1 X57.1500 Y76.2000 Z-4.0000 F900.0000
G1 X242.8500 Y76.2000 Z-4.0000 F900.0000
G1 X242.8500 Y77.7875 Z-4.0000 F900.0000
G1 X57.1500 Y77.7875 Z-4.0000 F900.0000
G1 X57.1500 Y79.3750 Z-4.0000 F900.0000
G1 X242.8500 Y79.3750 Z-4.0000 F900.0000
G1 X242.8500 Y80.9625 Z-4.0000 F900.0000
G1 X57.1500 Y80.9625 Z-4.0000 F900.0000
G1 X57.1500 Y82.5500 Z-4.0000 F900.0000
G1 X242.8500 Y82.5500 Z-4.0000 F900.0000
G1 X242.8500 Y84.1375 Z-4.0000 F900.0000
G1 X57.1500 Y84.1375 Z-4.0000 F900.0000
G1 X57.1500 Y85.7250 Z-4.0000 F900.0000
G1 X242.8500 Y85.7250 Z-4.0000 F900.0000
G1 X242.8500 Y87.3125 Z-4.0000 F900.0000
G1 X57.1500 Y87.3125 Z-4.0000 F900.0000
G1 X57.1500 Y88.9000 Z-4.0000 F900.0000
G1 X242.8500 Y88.9000 Z-4.0000 F900.0000
G1 X242.8500 Y90.4875 Z-4.0000 F900.0000
G1 X57.1500 Y90.4875 Z-4.0000 F900.0000
G1 X57.1500 Y92.0750 Z-4.0000 F900.0000
G1 X242.8500 Y92.0750 Z-4.0000 F900.0000
G1 X242.8500 Y92.8500 Z-4.0000 F900.0000
G1 X57.1500 Y92.8500 Z-4.0000 F900.0000
G1 X57.1500 Y92.8500 Z-4.0000 F900.0000
G0 Z1.0000;  Milling operation done

(Panel outline)
G0 Z5.0000
G0 X-3.1750 Y-3.1750
G0 Z1.0000
G1 X-3.1750 Y-3.1750 Z-5.7150 F60.0000
G1 X-3.1750 Y153.1750 Z-5.7150 F500.0000
G1 X303.1750 Y153.1750 Z-5.7150 F500.0000
G1 X303.1750 Y-3.1750 Z-5.7150 F500.0000
G1 X-3.1750 Y-3.1750 Z-5.7150 F500.0000
G1 X-3.1750 Y-3.1750 Z-11.4300 F60.0000
G1 X-3.1750 Y153.1750 Z-11.4300 F500.0000
G1 X140.0000 Y153.1750 Z-11.4300 F500.0000
G1 X140.0000 Y153.1750 Z-9.0000 F120.0000;  tab
G1 X166.3500 Y153.1750 Z-9.0000 F500.0000
G1 X166.3500 Y153.1750 Z-11.4300 F60.0000
G1 X303.1750 Y153.1750 Z-11.4300 F500.0000
G1 X303.1750 Y-3.1750 Z-11.4300 F500.0000
G1 X166.3500 Y-3.1750 Z-11.4300 F500.0000
G1 X166.3500 Y-3.1750 Z-9.0000 F120.0000;  tab
G1 X140.0000 Y-3.1750 Z-9.0000 F500.0000
G1 X140.0000 Y-3.1750 Z-11.4300 F60.0000
G1 X-3.1750 Y-3.1750 Z-11.4300 F500.0000
G1 X-3.1750 Y-3.1750 Z-17.1450 F60.0000
G1 X-3.1750 Y153.1750 Z-17.1450 F500.0000
G1 X140.0000 Y153.1750 Z-17.1450 F500.0000
G1 X140.0000 Y153.1750 Z-9.0000 F120.0000;  tab
G1 X166.3500 Y153.1750 Z-9.0000 F500.0000
G1 X166.3500 Y153.1750 Z-17.1450 F60.0000
G1 X303.1750 Y153.1750 Z-17.1450 F500.0000
G1 X303.1750 Y-3.1750 Z-17.1450 F500.0000
G1 X166.3500 Y-3.1750 Z-17.1450 F500.0000
G1 X166.3500 Y-3.1750 Z-9.0000 F120.0000;  tab
G1 X140.0000 Y-3.1750 Z-9.0000 F500.0000
G1 X140.0000 Y-3.1750 Z-17.1450 F60.0000
G1 X-3.1750 Y-3.1750 Z-17.1450 F500.0000
G1 X-3.1750 Y-3.1750 Z-21.5000 F60.0000
G1 X-3.1750 Y153.1750 Z-21.5000 F500.0000
G1 X140.0000 Y153.1750 Z-21.5000 F500.0000
G1 X140.0000 Y153.1750 Z-9.0000 F120.0000;  tab
G1 X166.3500 Y153.1750 Z-9.0000 F500.0000
G1 X166.3500 Y153.1750 Z-21.5000 F60.0000
G1 X303.1750 Y153.1750 Z-21.5000 F500.0000
G1 X303.1750 Y-3.1750 Z-21.5000 F500.0000
G1 X166.3500 Y-3.1750 Z-21.5000 F500.0000
G1 X166.3500 Y-3.1750 Z-9.0000 F120.0000;  tab
G1 X140.0000 Y-3.1750 Z-9.0000 F500.0000
G1 X140.0000 Y-3.1750 Z-21.5000 F60.0000
G1 X-3.1750 Y-3.1750 Z-21.5000 F500.0000
G0 Z1.0000;  Rectangle cut done

(begin postamble)
M5
G17 G90
M2